X: 20463
T: John Joe McElroy's Fling
R: strathspey
M: 4/4
K: Cmajor
(3cBA|G<CE>A G>CE>A|G<CE>G c>B (3cBA|G<CE>A G>CE>C|(3G,G,G, B,>D (3FFE F>A|
G<CE>A G>CE>A|G<CE>G c>Bc>d|(3eee d>e c>c (3BAG|c>AG>E (3DDD||
E>G|
(3ccc B>c A>GE>G|(3ccc B>c A>GG>B|(3ccc B>c A>cG>E|D>EF>G A>A (3GAB|
c>eB>c A>GE>G|(3ccc B>c A>GG>B|
B>dd>B (3AAG E>C|D>EF>G A>c||

